EmulationStation/Carbon/gamecube/art/system.svg

<?xml version="1.0" encoding="utf-8"?>
<!-- Generator: Adobe Illustrator 25.0.1, SVG Export Plug-In . SVG Version: 6.00 Build 0)  -->
<svg version="1.1" id="gamecube" xmlns="http://www.w3.org/2000/svg" xmlns:xlink="http://www.w3.org/1999/xlink" x="0px" y="0px"
	 viewBox="0 0 227.4 82.3" style="enable-background:new 0 0 227.4 82.3;" xml:space="preserve">
<style type="text/css">
	.st0{fill:url(#right_edge_2_);}
	.st1{fill:url(#center_edge_1_);}
	.st2{fill:url(#left_edge_2_);}
	.st3{fill:url(#bottom_edge_2_);}
	.st4{fill:url(#right_edge_3_);}
	.st5{fill:url(#face_2_);}
	.st6{fill:url(#left_edge_3_);}
	.st7{fill:url(#bottom_edge_3_);}
	.st8{fill:url(#face_3_);}
	.st9{fill:url(#top_face_1_);}
	.st10{fill:#C2D3DA;}
</style>
<g id="top_face_edges">
	
		<linearGradient id="right_edge_2_" gradientUnits="userSpaceOnUse" x1="-149.9498" y1="-648.3627" x2="-138.7398" y2="-642.0027" gradientTransform="matrix(1 0 0 -1 199.29 -629.53)">
		<stop  offset="0" style="stop-color:#3956E7"/>
		<stop  offset="1" style="stop-color:#3F53C5"/>
	</linearGradient>
	<path id="right_edge" class="st0" d="M51.8,11v12.8l10.9-6.4v-1.7L51.8,11z"/>
	
		<linearGradient id="center_edge_1_" gradientUnits="userSpaceOnUse" x1="-115.5561" y1="-677.7078" x2="-99.6161" y2="-687.6878" gradientTransform="matrix(1 0 0 -1 153.39 -668.73)">
		<stop  offset="0" style="stop-color:#A7C2FD"/>
		<stop  offset="1" style="stop-color:#7990F4"/>
	</linearGradient>
	<path id="center_edge" class="st1" d="M51.8,11L36,1.8l-0.2,12.6l16,9.4L51.8,11z"/>
	
		<linearGradient id="left_edge_2_" gradientUnits="userSpaceOnUse" x1="-27.9185" y1="-631.7825" x2="-3.6385" y2="-616.5925" gradientTransform="matrix(1 0 0 -1 36.36 -607.38)">
		<stop  offset="0" style="stop-color:#4C6FCD"/>
		<stop  offset="1" style="stop-color:#4166CD"/>
	</linearGradient>
	<path id="left_edge" class="st2" d="M36,1.8L0.2,22.5l11,6.3l24.6-14.3L36,1.8z"/>
</g>
<g id="right_face_1_">
	
		<linearGradient id="bottom_edge_2_" gradientUnits="userSpaceOnUse" x1="-116.9591" y1="-486.5815" x2="-93.4591" y2="-473.0315" gradientTransform="matrix(1 0 0 -1 155.25 -413.5)">
		<stop  offset="0" style="stop-color:#E6EDF8"/>
		<stop  offset="1" style="stop-color:#6B8DE2"/>
	</linearGradient>
	<path id="bottom_edge" class="st3" d="M59.1,54.9L35.6,68.5v12.2L70,60.9L59.1,54.9z"/>
	
		<linearGradient id="right_edge_3_" gradientUnits="userSpaceOnUse" x1="-195.3375" y1="-582.95" x2="-195.3575" y2="-598.4" gradientTransform="matrix(1 0 0 -1 259.92 -542.17)">
		<stop  offset="0" style="stop-color:#7998F0"/>
		<stop  offset="1" style="stop-color:#C2D6FF"/>
	</linearGradient>
	<path id="right_edge_1_" class="st4" d="M70,33.9L59.1,40v15L70,60.9V33.9z"/>
	
		<linearGradient id="face_2_" gradientUnits="userSpaceOnUse" x1="-109.2806" y1="-581.5526" x2="-73.6894" y2="-602.1075" gradientTransform="matrix(1 0 0 -1 145 -540.31)">
		<stop  offset="0" style="stop-color:#1E54CF"/>
		<stop  offset="0.72" style="stop-color:#5E89E8"/>
		<stop  offset="0.96" style="stop-color:#90ABE2"/>
		<stop  offset="1" style="stop-color:#90ABE2"/>
	</linearGradient>
	<path id="face_1_" class="st5" d="M71.4,20.7L35.6,41.4v19.1l16.7-9.6v-5.5l8.2-4.6v15L35.6,70.1v12.3l35.8-20.7V20.7z"/>
</g>
<g id="left_face_1_">
	
		<linearGradient id="left_edge_3_" gradientUnits="userSpaceOnUse" x1="-22.9182" y1="-624.63" x2="-23.0282" y2="-653.04" gradientTransform="matrix(1 0 0 -1 29.68 -597.83)">
		<stop  offset="0" style="stop-color:#4C6FCD"/>
		<stop  offset="1" style="stop-color:#304DBA"/>
	</linearGradient>
	<path id="left_edge_1_" class="st6" d="M1.3,60.6l10.9-4.5V27.8L1.3,21.6V60.6z"/>
	
		<linearGradient id="bottom_edge_3_" gradientUnits="userSpaceOnUse" x1="-30.6308" y1="-527.0613" x2="-7.1308" y2="-540.8113" gradientTransform="matrix(1 0 0 -1 39.98 -467.55)">
		<stop  offset="0" style="stop-color:#FBFCFD"/>
		<stop  offset="1" style="stop-color:#DFE8F4"/>
	</linearGradient>
	<path id="bottom_edge_1_" class="st7" d="M1.3,61.2l34.3,19.7V68.6L12.1,54.7L1.3,61.2z"/>
	
		<radialGradient id="face_3_" cx="-670.56" cy="-591.09" r="41.38" gradientTransform="matrix(6.123234e-17 -1 -1 -6.123234e-17 -591.01 -608.55)" gradientUnits="userSpaceOnUse">
		<stop  offset="0" style="stop-color:#5175E9"/>
		<stop  offset="1" style="stop-color:#AEDAFC"/>
	</radialGradient>
	<path id="face" class="st8" d="M0.1,62l35.5,20.3V70.1L10.9,55.5V26.8L0.1,20.6V62 M35.6,60.5V41.4l-16.5-9.6V51L35.6,60.5z"/>
</g>
<radialGradient id="top_face_1_" cx="110.48" cy="41.56" r="41.38" gradientTransform="matrix(6.123234e-17 1 1 -6.123234e-17 -5.81 -110.48)" gradientUnits="userSpaceOnUse">
	<stop  offset="0" style="stop-color:#A7C2FD"/>
	<stop  offset="1" style="stop-color:#FCFFFF"/>
</radialGradient>
<path id="top_face" class="st9" d="M71.1,20.8l-1-0.6L51.3,31.1l-15.7-9L19,31.8l16.7,9.6L71.1,20.8 M62.6,15.6L35.8,0L0,20.6
	l11,6.3l24.6-14.3L51.6,22L62.6,15.6z"/>
<path id="gamecube_1_" d="M153.8,40.6V50c0,2.1,1.7,3.2,3.9,3.2h10.3c2.1,0,3.5-1.1,3.5-3.2v-3.7h-4.2v3h-8.9v-8.2h8.9v2.7h4.2v-3.2
	c0-2.1-1.3-3.2-3.5-3.2h-10.3C155.5,37.4,153.8,38.5,153.8,40.6z M173,37.4V50c0,2.1,1.7,3.2,3.9,3.2h10.3c2.1,0,3.5-1.1,3.5-3.2
	V37.4h-4.2v12h-8.9v-12H173z M211.1,37.4v15.9h16.2v-3.8h-12v-2.8h6.9v-3.4h-6.9v-2.4h12v-3.6H211.1z M134.9,37.4v15.9h16.2v-3.8
	h-12v-2.8h6.9v-3.4h-6.9v-2.4h12v-3.6H134.9z M92.2,53.3h11.5v-3.8h-5l4.5-7.4l6.2,11.2h7.1v-8.1l4.6,8.1h3.3l4.6-8.1v8.1h4.1V37.4
	h-4l-6.4,10.9l-6.4-10.9h-4v12.8l-7.3-12.8h-3.8L92.2,53.3z M74.2,40.6V50c0,2.1,1.7,3.2,3.9,3.2h11.4c2.1,0,3.5-1.1,3.5-3.2v-6.4
	H83v3.6h5.6v2.2h-9.8v-8.2h14v-3.7H78.1C76,37.4,74.2,38.5,74.2,40.6z M192.4,37.4v15.8H206c1.9,0,3.5-1.5,3.6-3.4V48
	c0-1.1-0.6-2.1-1.4-2.8c0.8-0.7,1.2-1.6,1.2-2.6v-2.2c0-1.9-1.7-3-3.6-3H192.4 M196.8,43.4v-2.5h8c0.4,0,0.7,0.3,0.6,0.7v1.2
	c0,0.4-0.3,0.6-0.6,0.7L196.8,43.4 M196.8,49.5v-2.8h8c0.4,0,0.6,0.3,0.6,0.7v1.5c0,0.4-0.3,0.6-0.6,0.7H196.8z"/>
<path id="nintendo" class="st10" d="M99.8,21.1h2.6v12.2h-2.6V21.1z M84.6,21.1v7.4l-3.8-7.4h-3.2v12.2h2.4v-9.1l4.6,9.1H87V21.1
	H84.6z M122,21.1v7.4l-3.8-7.4H115v12.2h2.4v-9.1l4.6,9.1h2.4V21.1H122z M181.3,21.1v7.4l-3.8-7.4h-3.2v12.2h2.4v-9.1l4.6,9.1h2.4
	V21.1H181.3z M138.4,23.1v10.2h2.6V23.1h3.8v-2h-10.2v2H138.4z M214.6,24.3v5.9c0.1,1.9,1.7,3.3,3.6,3.2h2.5
	c1.9,0.1,3.4-1.3,3.6-3.2v-5.9c-0.1-1.9-1.7-3.3-3.6-3.2h-2.5C216.3,21,214.7,22.4,214.6,24.3 M216.8,24.5c-0.1-0.7,0.4-1.3,1.1-1.4
	c0,0,0.1,0,0.1,0h2.6c0.8,0,1.4,0.6,1.4,1.4v5.4c0,0.8-0.6,1.4-1.4,1.4h-2.4c-0.8,0-1.4-0.6-1.4-1.4c0,0,0,0,0,0L216.8,24.5z
	 M194.8,21.1v12.2h5.9c1.9,0.1,3.4-1.3,3.6-3.2v-5.9c-0.1-1.9-1.7-3.3-3.6-3.2H194.8 M197.2,31.4v-8.2h3.4c0.8,0,1.4,0.6,1.4,1.4
	v5.4c0,0.8-0.6,1.4-1.4,1.4L197.2,31.4z M154.3,24.3v5.9c0.1,1.9,1.7,3.3,3.6,3.2h5.4v-2h-5.4c-0.8,0-1.4-0.6-1.4-1.4c0,0,0,0,0,0
	v-2h6.8v-2h-6.8v-1.4c-0.1-0.7,0.4-1.3,1.1-1.4c0,0,0.1,0,0.1,0h5.6v-2h-5.4C156,21,154.4,22.4,154.3,24.3z"/>
</svg>

<svg id="gamecube" xmlns="http://www.w3.org/2000/svg" xmlns:xlink="http://www.w3.org/1999/xlink" width="227.4" height="82.3" viewBox="0 0 227.4 82.3">
  <defs>
    <linearGradient id="linear-gradient" x1="-149.97" y1="998.33" x2="-138.76" y2="991.97" gradientTransform="translate(199.29 -979.53)" gradientUnits="userSpaceOnUse">
      <stop offset="0" stop-color="#3956e7"/>
      <stop offset="1" stop-color="#3f53c5"/>
    </linearGradient>
    <linearGradient id="linear-gradient-2" x1="-115.55" y1="1027.7" x2="-99.61" y2="1037.68" gradientTransform="translate(153.39 -1018.73)" gradientUnits="userSpaceOnUse">
      <stop offset="0" stop-color="#a7c2fd"/>
      <stop offset="1" stop-color="#7990f4"/>
    </linearGradient>
    <linearGradient id="linear-gradient-3" x1="-27.88" y1="981.84" x2="-3.6" y2="966.65" gradientTransform="translate(36.36 -957.38)" gradientUnits="userSpaceOnUse">
      <stop offset="0" stop-color="#4c6fcd"/>
      <stop offset="1" stop-color="#4166cd"/>
    </linearGradient>
    <linearGradient id="linear-gradient-4" x1="-116.98" y1="836.55" x2="-93.48" y2="823" gradientTransform="translate(155.25 -763.5)" gradientUnits="userSpaceOnUse">
      <stop offset="0" stop-color="#e6edf8"/>
      <stop offset="1" stop-color="#6b8de2"/>
    </linearGradient>
    <linearGradient id="linear-gradient-5" x1="-195.36" y1="932.95" x2="-195.38" y2="948.4" gradientTransform="translate(259.92 -892.17)" gradientUnits="userSpaceOnUse">
      <stop offset="0" stop-color="#7998f0"/>
      <stop offset="1" stop-color="#c2d6ff"/>
    </linearGradient>
    <linearGradient id="linear-gradient-6" x1="-109.32" y1="931.57" x2="-73.73" y2="952.12" gradientTransform="translate(145 -890.31)" gradientUnits="userSpaceOnUse">
      <stop offset="0" stop-color="#1e54cf"/>
      <stop offset="0.72" stop-color="#5e89e8"/>
      <stop offset="0.96" stop-color="#90abe2"/>
      <stop offset="1" stop-color="#90abe2"/>
    </linearGradient>
    <linearGradient id="linear-gradient-7" x1="-22.88" y1="974.63" x2="-22.99" y2="1003.04" gradientTransform="translate(29.68 -947.83)" gradientUnits="userSpaceOnUse">
      <stop offset="0" stop-color="#4c6fcd"/>
      <stop offset="1" stop-color="#304dba"/>
    </linearGradient>
    <linearGradient id="linear-gradient-8" x1="-30.63" y1="877.05" x2="-7.13" y2="890.8" gradientTransform="translate(39.98 -817.55)" gradientUnits="userSpaceOnUse">
      <stop offset="0" stop-color="#fbfcfd"/>
      <stop offset="1" stop-color="#dfe8f4"/>
    </linearGradient>
    <radialGradient id="radial-gradient" cx="-983.56" cy="988.09" r="41.38" gradientTransform="translate(-988.01 -921.55) rotate(-90)" gradientUnits="userSpaceOnUse">
      <stop offset="0" stop-color="#5175e9"/>
      <stop offset="1" stop-color="#aedafc"/>
    </radialGradient>
    <radialGradient id="radial-gradient-2" cx="63.48" cy="-4.56" r="41.38" gradientTransform="translate(31.19 -63.48) rotate(90)" gradientUnits="userSpaceOnUse">
      <stop offset="0" stop-color="#a7c2fd"/>
      <stop offset="1" stop-color="#fcffff"/>
    </radialGradient>
  </defs>
  <g id="top_face_edges" data-name="top face edges">
    <path id="right_edge" data-name="right edge" d="M51.8,11V23.8l10.9-6.4V15.7Z" style="fill: url(#linear-gradient)"/>
    <path id="center_edge" data-name="center edge" d="M51.8,11,36,1.8l-.2,12.6,16,9.4Z" style="fill: url(#linear-gradient-2)"/>
    <path id="left_edge" data-name="left edge" d="M36,1.8.2,22.5l11,6.3L35.8,14.5Z" style="fill: url(#linear-gradient-3)"/>
  </g>
  <g id="right_face" data-name="right face">
    <path id="bottom_edge" data-name="bottom edge" d="M59.1,54.9,35.6,68.5V80.7L70,60.9Z" style="fill: url(#linear-gradient-4)"/>
    <path id="right_edge-2" data-name="right edge" d="M70,33.9,59.1,40V55L70,60.9Z" style="fill: url(#linear-gradient-5)"/>
    <path id="face" d="M71.4,20.7,35.6,41.4V60.5l16.7-9.6V45.4l8.2-4.6v15L35.6,70.1V82.4L71.4,61.7Z" style="fill: url(#linear-gradient-6)"/>
  </g>
  <g id="left_face" data-name="left face">
    <path id="left_edge-2" data-name="left edge" d="M1.3,60.6l10.9-4.5V27.8L1.3,21.6Z" style="fill: url(#linear-gradient-7)"/>
    <path id="bottom_edge-2" data-name="bottom edge" d="M1.3,61.2,35.6,80.9V68.6L12.1,54.7Z" style="fill: url(#linear-gradient-8)"/>
    <path id="face-2" data-name="face" d="M.1,62,35.6,82.3V70.1L10.9,55.5V26.8L.1,20.6V62m35.5-1.5V41.4L19.1,31.8V51Z" style="fill: url(#radial-gradient)"/>
  </g>
  <path id="top_face" data-name="top face" d="M71.1,20.8l-1-.6L51.3,31.1l-15.7-9L19,31.8l16.7,9.6L71.1,20.8m-8.5-5.2L35.8,0,0,20.6l11,6.3L35.6,12.6l16,9.4Z" style="fill: url(#radial-gradient-2)"/>
  <path id="gamecube-2" data-name="gamecube" d="M153.8,40.6V50c0,2.1,1.7,3.2,3.9,3.2H168c2.1,0,3.5-1.1,3.5-3.2V46.3h-4.2v3h-8.9V41.1h8.9v2.7h4.2V40.6c0-2.1-1.3-3.2-3.5-3.2H157.7C155.5,37.4,153.8,38.5,153.8,40.6ZM173,37.4V50c0,2.1,1.7,3.2,3.9,3.2h10.3c2.1,0,3.5-1.1,3.5-3.2V37.4h-4.2v12h-8.9v-12Zm38.1,0V53.3h16.2V49.5h-12V46.7h6.9V43.3h-6.9V40.9h12V37.3H211.1Zm-76.2,0V53.3h16.2V49.5h-12V46.7H146V43.3h-6.9V40.9h12V37.3H134.9ZM92.2,53.3h11.5V49.5h-5l4.5-7.4,6.2,11.2h7.1V45.2l4.6,8.1h3.3l4.6-8.1v8.1h4.1V37.4h-4l-6.4,10.9-6.4-10.9h-4V50.2L105,37.4h-3.8Zm-18-12.7V50c0,2.1,1.7,3.2,3.9,3.2H89.5c2.1,0,3.5-1.1,3.5-3.2V43.6H83v3.6h5.6v2.2H78.8V41.2h14V37.5H78.1C76,37.4,74.2,38.5,74.2,40.6Zm118.2-3.2V53.2H206a3.61,3.61,0,0,0,3.6-3.4V48a3.82,3.82,0,0,0-1.4-2.8,3.37,3.37,0,0,0,1.2-2.6V40.4c0-1.9-1.7-3-3.6-3H192.4m4.4,6V40.9h8a.56.56,0,0,1,.6.7v1.2a.75.75,0,0,1-.6.7l-8-.1m0,6.1V46.7h8c.4,0,.6.3.6.7v1.5a.75.75,0,0,1-.6.7h-8Z"/>
  <path id="nintendo" d="M99.8,21.1h2.6V33.3H99.8Zm-15.2,0v7.4l-3.8-7.4H77.6V33.3H80V24.2l4.6,9.1H87V21.1Zm37.4,0v7.4l-3.8-7.4H115V33.3h2.4V24.2l4.6,9.1h2.4V21.1Zm59.3,0v7.4l-3.8-7.4h-3.2V33.3h2.4V24.2l4.6,9.1h2.4V21.1Zm-42.9,2V33.3H141V23.1h3.8v-2H134.6v2Zm76.2,1.2v5.9a3.38,3.38,0,0,0,3.6,3.2h2.5a3.44,3.44,0,0,0,3.6-3.2V24.3a3.38,3.38,0,0,0-3.6-3.2h-2.5a3.38,3.38,0,0,0-3.6,3.2m2.2.2a1.24,1.24,0,0,1,1.1-1.4h2.7a1.37,1.37,0,0,1,1.4,1.4v5.4a1.37,1.37,0,0,1-1.4,1.4h-2.4a1.37,1.37,0,0,1-1.4-1.4h0Zm-22-3.4V33.3h5.9a3.44,3.44,0,0,0,3.6-3.2V24.2a3.38,3.38,0,0,0-3.6-3.2h-5.9m2.4,10.4V23.2h3.4a1.37,1.37,0,0,1,1.4,1.4V30a1.37,1.37,0,0,1-1.4,1.4Zm-42.9-7.1v5.9a3.38,3.38,0,0,0,3.6,3.2h5.4v-2h-5.4a1.37,1.37,0,0,1-1.4-1.4h0V28h6.8V26h-6.8V24.6a1.24,1.24,0,0,1,1.1-1.4h5.7v-2h-5.4A3.24,3.24,0,0,0,154.3,24.3Z" style="fill: #c2d3da"/>
</svg>
